X:4229
L:1/8
Q:1/8=160
M:6/8
K:D
 A | BAF ADD | FDD ADD | BAF ADD | FED EFA | BAF ADD | FDF d2 e | fed dcB | AGF EF :| z |: 
 de/f/e d2 B | AFd AFA | de/f/e d2 f | ede fdB | de/f/e d2 B | AFA ABd | gfe fdB | AGF EFA :|

